X:1
T:Nocturne 2
T:5
%%score { 1 | 2 }
L:1/8
Q:1/4=100
M:3/4
K:Db
V:1 treble nm="Piano" snm="Pno."
V:2 bass 
V:1
"^Moderato" d4 e2 | (f2 d2 B2) | A4 (de) | (f2 d2 c'2) | Pb4 a2 | Pg4 =e2 | f6 | a6 | d4 d2 | %9
[M:4/4] (3(d2 f'2 d'2 (3b2 d'2 b2) |[M:5/4] a8- a2 |[M:3/4] (g2 f2 e2) | d6- | d6 | z6 | z6 | %16
 d4 e2 | (=ef cd AB) | A4 (de) | (3(fge d2 c'2) | Pb4 a2 | Pg4 =e2 | f6 |{/f} a4 a2 | d4 dd | %25
[M:4/4] (3(d2 f'2 d'2 (3b2 d'2 f'2) |[M:5/4] d'8- d'2 |[M:3/4] (g2 fg ef) | d6- | d4 f2 | Td4 f2 | %31
 A6 | TB6{AB} | (3(A/d/f/)(3(c'/b/a/) (3(f'/e'/d'/)(5:3:5(a'g'f'e'd') |{c'd'} Td'6{d'e'} | f'2 a4 | %36
 Tb4 c'2 | a2 (c''/4b'/4a'/4g'/4f'/4e'/4d'/4c'/4 e'/4d'/4c'/4d'/4b/4c'/4a/4g/4) | f4 e2 | %39
 d/e/f/e/ d/4e/4f/4e/4d/4e/4f/4e/4 d/4e/4f/4e/4d/4e/4f/4e/4 | d/4e/4f/4e/4d/e/ f/e/d e2 | %41
"^a tempo" (f/g/Pf/e/) (d/e/Pd/c/) (PBc) | A4 (de) | ((f/g/f/e/) (3(d/e/d/c/d/) (c'b)) | Pb4 a2 | %45
 Pg4 (=e>g) | [df]6 |{/f} a4 a2 | [Ad]4 [Ad][Ad] |[M:4/4] d2 (a'/=g'/_g'/f'/) (Te'2 d'f') | %50
[M:5/4] [fa-]8 [ca]2 |[M:3/4]{GG} (g2 (5:4:5(e/f/e/d/e/) (fe)) | d6- | d4!<(! (cd!<)! | e4) (ef) | %55
 (g2 f2 e2) | f6- | f4!mf! ([cc'][dd'] | [ee']4) ([ee'][ff']) |!>(! ([gg']2 [ff']2 [ee']2)!>)! | %60
!p!!p! [dd']6- | [dd']6 | z6 | z6 | !fermata![d'a']6 | !fermata![F,A,D]6 |] %66
V:2
"^rubato" z6 |"^dolce" (D,,2 [A,,F,]2 D,2) | (D,,2 [A,,F,]2 D,2) | (D,,2 [A,,D,]2 [E,G,]2) | %4
 (D,,2 [A,,F,]2 [D,A,]2) | (E,,2 [C,E,]2 [B,,=G,]2) | (F,,2 [F,A,]2 [A,,F,]2) | %7
 (F,,2 [F,A,]2 [A,,D,]2) | (D,,2 [A,,F,]2 D,2) |[M:4/4] (D,,2 [F,A,]2 [D,B,]2 [A,,F,]2) | %10
[M:5/4] ([D,,A,,]2 [F,D]2 [A,F]2 [F,D]2 [CA]2) |[M:3/4] ([G,,E,]2 [F,A,]2 [E,G,]2) | %12
 (D,,2 [A,,F,]2 D,2) | (D,,2 [A,,F,]2 D,2) | (D,,2 [A,,F,]2 D,2) | (D,,2 [A,,F,]2 [A,,D,]2-) | %16
 [A,,D,]6 | (D,,2 [A,,F,]2 D,2) | (D,,2 [A,,F,]2 D,2) | (D,,2 [A,,D,]2 [E,G,]2) | %20
 (D,,2 [A,,F,]2 [D,A,]2) | (E,,2 [C,E,]2 [B,,=G,]2) | (F,,2 [F,A,]2 [A,,F,]2) | %23
 (F,,2 [F,A,]2 [A,,D,]2) | (D,,2 [A,,F,]2 D,2) |[M:4/4] (D,,2 [F,A,]2 [D,B,]2 [A,,F,]2) | %26
[M:5/4] ([D,,A,,]2 [F,D]2 [A,F]2 [F,D]2 [CA]2) |[M:3/4] ([G,,E,]2 [F,A,]2 [E,G,]2) | %28
 (D,,2 [A,,F,]2 D,2) | (D,,2 [A,,F,]2 D,2) | (F,,2 [F,C]2 A,2) | (A,,2 [F,A,]2 [A,,D,F,]2) | %32
 (E,,2 [E,=G,]2 [B,,E,]2) | (D,,2 [A,,F,]2 D,2) | (F,,2 [C,A,]2 F,2) | (C,,2 [A,,F,]2 D,2) | %36
 (E,,2 [E,=G,]2 [B,,E,]2) |"^rubato""^molto rit." [D,,A,,]6 | [A,,D,F,]6- | [A,,D,F,]6- | %40
 [A,,D,F,]6 | (D,,2 [A,,F,]2 D,2) | (D,,2 [A,,F,]2 D,2) | (D,,2 [A,,D,]2 [E,G,]2) | %44
 (D,,2 [A,,F,]2 [D,A,]2) | (E,,2 [C,E,]2 [B,,=G,]2) | (F,,2 [F,A,]2 [A,,F,]2) | %47
 (F,,2 [F,A,]2 [A,,D,]2) | (D,,2 [A,,F,]2 D,2) |[M:4/4] (D,,2 [F,A,]2 [D,B,]2 [A,,F,]2) | %50
[M:5/4] ([D,,A,,]2 [F,D]2 [A,F]2 [F,D]2 [CA]2) |[M:3/4] ([G,,E,]2 [F,A,]2 [E,G,]2) | %52
 (D,,2 [A,,F,]2 D,2) | (D,,2 [A,,F,]2 A,,2) | (E,,2 [B,,=G,]2 E,2) | (G,,2 [F,A,]2 [E,G,]2) | %56
 (F,,2 [A,,F,]2 D,2) | (F,,2 [F,A,]2 F,2) | ([A,,E,]2 [E,,C,]2 [A,,,E,,]2) | %59
 ([G,,E,]2 [F,,A,,]2 [E,,G,,]2) | (D,,2 [A,,F,]2 D,2) | (D,,2 [A,,F,]2 D,2) | (D,,2 F,2 D,2) | %63
 (D,,2 F,2 D,2) | !fermata![A,,D,F,]6 |!pp! !fermata![D,,A,,]6 |] %66

